X: 08018
T: The CANOTE MEN'S BRAMBLE
T: (not written to be a thorn in anyone's side ...)
C: Bob McQuillen 14 Jan'91
B: Bob's Note Book 8 #18
%R: reel
Z: 2021 John Chambers <jc:trillian.mit.edu>
M: C
L: 1/8
P: GREG:
K: D
ag \
| fdec dBAG | FAEA FDDF | AFAd BGBd | Adfd e2ag |\
| fdec dBAG | FAEA FDDF | AFAd BGBd | Acec d2 :|
P: JERE:
K: A
|: ed \
| ceaA dfaA | ceae faed | cAce dfea | ecAc B2ed |\
| ceaA dfaA | ceaf edcB | Acea gfed | c2A2 A2 :|
%%begintext align
%% I am so sorry
%% that only lack of space prevents me from saying more
%% about the great Canote brothrs, wonderful musicians
%% from Seattle, and mainstays of Sandy Medley's
%% Small Wonders String Band. Their playing (and singing!)
%% help set the standard for West Coast music.
%%endtext
%%begintext align
%% Note: A fine traditional tune much played at dances is
%% "Connaught-Man's Ramble". I couldn't resist the title above!
%%endtext

%%sep 1 1 500

%%sep 1 1 500

